X: 380
T: Once I Was Happy   #2
R: waltz, air
%S: s:2 b:8
B: O'Neill's 1850 #380
O: F.O'Neill
Z: Chris Falt, cfalt@trytel.com
N: Compacted by using labels and play order [JC]
P: Play AB BA
Q: "Tenderly."
M: 3/4
L: 1/8
K: Dmix
"^A"[|] Ac | d2 A2 GE | c2 B2 AB | GE D2 D2 | "^fine"D4 \
"^B"|:  Ac | d2 d2 ed | c2 B2 AG | E2 F2 G2 |  "^->A"A4 :]
